X: 12
T:Merry Wakefield. WCl.12
M:9/8
L:1/8
Q:100
S:William Clarke MS,Lincoln,1770.
R:Slip Jig
O:Lincoln
A:England
N:
Z:vmp.Barry Callaghan
K:G
"6/8 in MS"Bd(g g)dB gdB|cea afg f2 d|Bd(g g)dB gdB|(B/2c/2dB) "qus in m
s"e/f/gB A2G::!
Bc(d d)BG AFD|EFG ABc "tr"c2B|gdB ecA dBG|(B/2c/2dB) (e/2f/2gB) A2G:||
